!!!Genre:	Freylekhs
!!!Mode:	Freygish
!!!Listening/dance:	dance
!!!One_Mode:	yes
**kern
*thru
*part1
*staff1
*clefG2
*k[b-e-a-]
*G:frey
*M2/4
=1-
4gg
4dd
=2
4bn
4g
=3
8gL
8a-
8g
8a-J
=4
8bnL
8ccJ
16bLL
16a-
16g
16fJJ
=5
4g
4g
=6
4g
4g
=7
8gL
8a-
8g
8a-J
=8
8bnL
8ccJ
16bLL
16a-
16g
16fJJ
=9
4f
4f
=10
8fL
8cJ
12a-L
12g
12fJ
=11
8enL
8f
8g
8a-J
=12
2g
=13
8enL
8f
8g
8a-J
=14
4.g
=||
8g
=15
2dd
=16
2dd
=17
4dd
4dd
=18
4dd
4dd
=19!|:
8ddL
8ee-
8dd
8ccJ
=20
8bnL
8cc
8b
8gJ
=21:|!
4cc
8ccL
8ccJ
=22
4.bn
8a-
=23
8gL
8a-
8bn
8ccJ
=24
8bnL
16a-L
16gJJ
4f
=25
4cc
(>8ffL
8ccJ)
=26
4.bn
8a-
=27
8gL
8a-
8bn
8ccJ
=28
8bnL
16a-L
16gJJ
4f
=29
4f
4cc
=30
16fLL
16en
16f
16gJJ
16a-LL
16gJ
8fJ
=31
8fL
8fJ
4cc
=32
8bnL
8a-
8g
8fJ
=33
4f
4cc
=34
16fLL
16en
16f
16gJJ
16a-LL
16gJ
8fJ
=35
8enL
8fJ
8gL
8a-J
=36
4.g
16gLL
16fJJ
=37
8enL
8f
8g
8a-J
=38
4g
4r
==
*-
